X:2
T:Goin' Up Town
M:2/4
L:1/8
S:Howdy Forrester, learned from Oscar Stone
N:Transcribed by John Hartford
K:D
f/g/ |\
a>^g a/g/a/g/ | bagf | e>^d e/f/g/e/ | B3 e/f/ | g>f g/f/g/f/ |
ag (3f/g/f/ e/e/  |1 d>c d/f/e/g/ | f2 z :|2 cA/c/ B/A/c/A/ | d3 D/E/ | 
|: F/A/B/F/ A/c/B/F/ | A/c/B/F/ A(D | D/)F/B/F/ A/c/B/F/ | A/cd/ c2 :|
